X:4
T:GB/7b/4B The Bonny Bunch of Roses,O-0
%%VWML:GB-7b-4B-0
F:http://www.vwml.org/record/GB/7b/4B
T:Version 3 of 5
C:Mr. and Mrs. Cranstone (p. 4), Billingshurst, VI. 07
C:Transcribed by Simon Furey and Lewis Jones
L:1/8
M:4/4
I:linebreak $
K:Cdor
G2 | c3 d e2 d2 | c3 B G4 | c2 cd e2 d2 | c2 BA G2 G2 |$ c3 B G2 FE | F2 G2 C2 DE | F2 GA BAGF |
G2 C2 C2 |]

